X: 1
P: Men of Argyll
C: P.M. John MacLellan of Dunoon
C: from Matt Petrie, arr. T. Traub 2-24-2004
R: march
M: 2/4
L: 1/8
K: Bm
|: f/e/|"Bm"dB Bd/e/|"D"fa fe/d/|"A"cA A>B|c/A/c/d/ ef/e/|"Bm"dc/d/ Bd/e/|"D"fa fd/e/|"D"f/e/f/a/ "A"cA|"Bm"B2 B :|
f/g/|"D"ad fe/d/|"D"fa "E7"fc/d/|"A"eA c>d|e/c/A/c/ ef/g/|"D"ad fe/d/|fa fd/e/|"D"f/e/f/a/ "A"cA|"Bm"B2 B||
f/g/|"D"ad fe/d/|"D"fa "E7"fc/d/|"A"eA c>d|e/c/A/c/ ef/e/|"Bm"dc/d/ Bd/e/|"D"fa fd/e/|"D"f/e/f/a/ "A"cA|"Bm"B2 B |]
